X: 31731
T: Pat Enright's
R: polka
M: 2/4
K: Gmajor
|:D2 DD|EG G2|A2 AG|EG A2|
D2 DD|EG GB|dB AB|1 G2 B/A/G/E/:|2 GA Bc||
d2 Bd|eA g>e|dB AG|EG AB|
d2 Bd|eA g>e|dB AB|GA Bc|
d2 Bd|eA g>e|dB AG|EG A2|
D2 DD|EG GB|dB AB|G2 B/A/G/E/||

